X: 394
%
U:~=!turn!
T: Miss Dale
C:S.D.S
O:Scotland
B:Keith Norman MacDonald : "The Skye collection of the best reels & strathspeys extant" : 1887
Z:Ralph Palmer
R:Strathspey
M:C
L:1/8
K:B dorian
a !segno!| e<cc>B A>FF>A | E>FA>c d2 d>f | e>cc>B A<FF>c | d<fe>c B3 f | e>cc>B A<FF>A |
E>FA>c d2 d>f | ((3fga) ((3edc) ((3def) ((3edc) | a>f f/e/d/c/ B2 B || f | e>ca>c e>ca>c | f/e/d/c/ ac e2 (ef) |
e>ca>c e>ca>A | ((3fga) ((3edc) B2 B<f | e>ca>c f/e/d/c/ a>c | e>ca>e f2 fg | ((3agf) ((3edc) ((3def) ((3efg) | ((3agf) ((3edc) ((3Bbg ) ((3agf) !segno!|]


